src/lib/packages/icons/src/assets/filled/sd-card.svg

<svg width="24" height="24" viewBox="0 0 24 24" fill="none" xmlns="http://www.w3.org/2000/svg">
<path d="M15.5 3H10.1211C9.72309 3 9.34206 3.15796 9.06006 3.43896L5.93896 6.56006C5.65796 6.84106 5.5 7.22309 5.5 7.62109V18C5.5 20 6.5 21 8.5 21H15.5C17.5 21 18.5 20 18.5 18V6C18.5 4 17.5 3 15.5 3ZM10.25 9.5C10.25 9.914 9.914 10.25 9.5 10.25C9.086 10.25 8.75 9.914 8.75 9.5V7C8.75 6.586 9.086 6.25 9.5 6.25C9.914 6.25 10.25 6.586 10.25 7V9.5ZM13.25 9.5C13.25 9.914 12.914 10.25 12.5 10.25C12.086 10.25 11.75 9.914 11.75 9.5V7C11.75 6.586 12.086 6.25 12.5 6.25C12.914 6.25 13.25 6.586 13.25 7V9.5ZM16.25 9.5C16.25 9.914 15.914 10.25 15.5 10.25C15.086 10.25 14.75 9.914 14.75 9.5V7C14.75 6.586 15.086 6.25 15.5 6.25C15.914 6.25 16.25 6.586 16.25 7V9.5Z" fill="currentColor"/>
</svg>

<svg xmlns="http://www.w3.org/2000/svg" width="24" height="24" fill="none"><path fill="currentColor" d="M15.5 3h-5.379c-.398 0-.779.158-1.06.439L5.938 6.56A1.5 1.5 0 0 0 5.5 7.621V18c0 2 1 3 3 3h7c2 0 3-1 3-3V6c0-2-1-3-3-3Zm-5.25 6.5a.75.75 0 0 1-1.5 0V7a.75.75 0 0 1 1.5 0v2.5Zm3 0a.75.75 0 0 1-1.5 0V7a.75.75 0 0 1 1.5 0v2.5Zm3 0a.75.75 0 0 1-1.5 0V7a.75.75 0 0 1 1.5 0v2.5Z"/></svg>
